svgs/overdrop.svg

<svg width="192" height="192" viewBox="0 0 192 192" xmlns="http://www.w3.org/2000/svg"><path d="M96.31 21.629a12.957 12.957 0 0 1 9.183 3.82c26.425 26.55 40.37 40.715 41.77 42.562 1.685 2.225 4.07 5.973 5.297 8.33 1.236 2.374 2.783 5.758 3.428 7.522.65 1.778 1.608 4.942 2.13 7.031.519 2.072 1.158 5.539 1.42 7.705.304 2.493.375 6.173.224 10.036-.15 3.816-.528 7.526-1.05 9.988-.461 2.181-1.374 5.573-2.03 7.536-.652 1.953-1.97 5.205-2.929 7.226-.953 2.011-2.866 5.366-4.246 7.458-1.389 2.106-3.763 5.252-5.277 6.99-1.501 1.724-4.222 4.417-6.045 5.987-1.84 1.585-4.77 3.832-6.512 4.99-1.732 1.152-4.655 2.85-6.496 3.773-1.849.928-4.517 2.133-5.93 2.673-1.421.543-4.105 1.412-5.963 1.935-1.838.517-4.934 1.193-6.88 1.503-1.963.313-5.53.642-7.93.735-1.182.046-2.45.072-3.563.077h-.817a23.414 23.414 0 0 1-1.571-.04c-.667-.057-1.898-.195-3.172-.35l-.672-.083c-.435-.054-.865-.11-1.27-.164-1.738-.233-4.92-.869-7.071-1.408-2.119-.532-5.295-1.543-7.057-2.252-1.822-.733-5.096-2.27-7.276-3.41-2.117-1.107-5.43-3.18-7.363-4.607-1.96-1.447-5.34-4.427-7.518-6.615-2.166-2.176-5.141-5.63-6.604-7.681-1.464-2.054-3.719-5.863-5.015-8.461-1.296-2.598-2.895-6.318-3.542-8.272-.651-1.97-1.59-5.63-2.09-8.132-.735-3.674-.866-5.652-.873-11.685 0-6.329.13-8.974.694-11.84.41-2.08 1.44-5.897 2.286-8.482.834-2.554 2.603-6.733 3.926-9.289 1.32-2.548 3.787-6.466 5.483-8.706 2.126-2.806 8.441-9.352 22.615-23.545l2.03-2.032a4786.9 4786.9 0 0 1 4.368-4.36l12.71-12.67a12.96 12.96 0 0 1 9.198-3.793Zm.086 46.888a10.01 10.01 0 0 0-7.083 2.994C77.617 83.43 71.633 89.89 71.117 90.74c-.939 1.546-2.234 4.32-2.872 6.167-.94 2.721-1.273 4.688-1.273 9.3 0 4.722.313 6.522 1.346 9.487.684 1.964 2.303 5.186 3.61 7.153 1.36 2.048 3.832 4.8 5.473 6.134 1.596 1.297 4.22 2.99 5.821 3.772 1.591.777 4.047 1.718 5.453 2.104 1.432.393 4.791.791 7.477.814 2.682.024 6.176-.356 7.773-.78 1.573-.418 4.127-1.375 5.674-2.13 1.554-.76 4.076-2.363 5.6-3.573 1.555-1.237 4.01-3.882 5.432-5.902 1.401-1.99 3.133-5.368 3.859-7.5 1.075-3.156 1.374-4.925 1.374-9.61 0-4.576-.332-6.55-1.272-9.27-.638-1.847-1.933-4.62-2.872-6.165-.838-1.38-5.445-6.544-11.065-12.178l-.6-.6-6.552-6.532a9.948 9.948 0 0 0-7.107-2.915Z" stroke="#000" stroke-width="12" fill="none"/></svg>

<?xml version="1.0" encoding="UTF-8" standalone="no"?><svg xmlns:android="http://schemas.android.com/apk/res/android" height="192" width="192" xmlns="http://www.w3.org/2000/svg">
  <path d="M96.31,21.63C99.64,21.63 102.96,22.91 105.49,25.45C131.92,52 145.86,66.16 147.26,68.01C148.95,70.24 151.33,73.98 152.56,76.34C153.8,78.72 155.34,82.1 155.99,83.86C156.64,85.64 157.6,88.81 158.12,90.89C158.64,92.97 159.28,96.43 159.54,98.6C159.84,101.09 159.91,104.77 159.76,108.64C159.61,112.45 159.23,116.16 158.71,118.62C158.25,120.8 157.34,124.2 156.68,126.16C156.03,128.11 154.71,131.36 153.75,133.39C152.8,135.4 150.89,138.75 149.51,140.84C148.12,142.95 145.74,146.1 144.23,147.83C142.73,149.56 140.01,152.25 138.18,153.82C136.34,155.4 133.42,157.65 131.67,158.81C129.94,159.96 127.02,161.66 125.18,162.58C123.33,163.51 120.66,164.72 119.25,165.26C117.83,165.8 115.14,166.67 113.28,167.19C111.45,167.71 108.35,168.38 106.4,168.69C104.44,169.01 100.87,169.34 98.47,169.43C97.29,169.48 96.02,169.5 94.91,169.51L94.09,169.51C93.41,169.5 92.85,169.49 92.52,169.47C91.86,169.41 90.62,169.27 89.35,169.12L88.68,169.03C88.24,168.98 87.81,168.92 87.41,168.87C85.67,168.64 82.49,168 80.34,167.46C78.22,166.93 75.04,165.92 73.28,165.21C71.46,164.48 68.19,162.94 66,161.8C63.89,160.69 60.57,158.62 58.64,157.19C56.68,155.75 53.3,152.76 51.12,150.58C48.96,148.4 45.98,144.95 44.52,142.9C43.06,140.84 40.8,137.03 39.51,134.44C38.21,131.84 36.61,128.12 35.96,126.16C35.31,124.19 34.37,120.53 33.87,118.03C33.14,114.36 33.01,112.38 33,106.35C33,100.02 33.13,97.37 33.69,94.51C34.1,92.43 35.13,88.61 35.98,86.02C36.81,83.47 38.58,79.29 39.91,76.74C41.23,74.19 43.69,70.27 45.39,68.03C47.52,65.22 53.83,58.68 68,44.48L70.03,42.45C71.42,41.07 72.88,39.61 74.4,38.09L87.11,25.42C89.65,22.89 92.98,21.62 96.31,21.63ZM96.4,68.52C93.85,68.53 91.29,69.51 89.31,71.51C77.62,83.43 71.63,89.89 71.12,90.74C70.18,92.29 68.88,95.06 68.24,96.91C67.3,99.63 66.97,101.6 66.97,106.21C66.97,110.93 67.28,112.73 68.32,115.69C69,117.66 70.62,120.88 71.93,122.85C73.29,124.9 75.76,127.65 77.4,128.98C79,130.28 81.62,131.97 83.22,132.75C84.81,133.53 87.27,134.47 88.68,134.86C90.11,135.25 93.47,135.65 96.15,135.67C98.83,135.7 102.33,135.32 103.93,134.89C105.5,134.47 108.05,133.52 109.6,132.76C111.15,132 113.68,130.4 115.2,129.19C116.75,127.95 119.21,125.31 120.63,123.29C122.03,121.3 123.76,117.92 124.49,115.79C125.57,112.63 125.86,110.86 125.86,106.18C125.86,101.6 125.53,99.63 124.59,96.91C123.95,95.06 122.66,92.29 121.72,90.74C120.88,89.36 116.27,84.2 110.65,78.56L110.05,77.96L103.5,71.43C101.54,69.47 98.97,68.5 96.4,68.52Z" fill="#000000" fill-opacity="0.0" fill-rule="evenOdd" stroke="#000000" stroke-width="12"/>
</svg>
